X:12388
T:Old Torn Petticoat
M:C|
L:1/8
K:A Dorian
ed|cABG AGED|EGAB cded|cABG AGED|EGAB A2ed|!
cABG AGED|EGAB cded|cABG AGED|EGAB A2:|!
AB|cdef gedg|eaaf gedB|cdef gedg|eaag a3B|!
cdef gedg|eaaf gedB|cABG AGED|EGAB A2:|!
